assets/img/icons/social/instagram_straight.svg

<svg width="30" height="30" viewBox="0 0 30 30" fill="none" xmlns="http://www.w3.org/2000/svg">
<path d="M-9.01547e-07 9.375L-4.09794e-07 20.625C-1.83506e-07 25.8019 4.19812 30 9.375 30L20.625 30C25.8019 30 30 25.8019 30 20.625L30 9.375C30 4.19813 25.8019 7.79513e-07 20.625 1.0058e-06L9.375 1.49755e-06C4.19812 1.72384e-06 -1.12784e-06 4.19813 -9.01547e-07 9.375ZM20.625 2.8125C24.2437 2.8125 27.1875 5.75625 27.1875 9.375L27.1875 20.625C27.1875 24.2437 24.2437 27.1875 20.625 27.1875L9.375 27.1875C5.75625 27.1875 2.8125 24.2437 2.8125 20.625L2.8125 9.375C2.8125 5.75625 5.75625 2.8125 9.375 2.8125L20.625 2.8125Z" fill="black"/>
<path d="M7.5 15C7.5 19.1419 10.8581 22.5 15 22.5C19.1419 22.5 22.5 19.1419 22.5 15C22.5 10.8581 19.1419 7.5 15 7.5C10.8581 7.5 7.5 10.8581 7.5 15ZM19.6875 15C19.6875 17.5837 17.5837 19.6875 15 19.6875C12.4144 19.6875 10.3125 17.5838 10.3125 15C10.3125 12.4163 12.4144 10.3125 15 10.3125C17.5837 10.3125 19.6875 12.4162 19.6875 15Z" fill="black"/>
<path d="M7.93685 6.93715C7.93685 6.38521 7.48942 5.93777 6.93748 5.93777C6.38554 5.93777 5.93811 6.38521 5.93811 6.93715C5.93811 7.48909 6.38554 7.93652 6.93748 7.93652C7.48942 7.93652 7.93685 7.48909 7.93685 6.93715Z" fill="black"/>
</svg>

<svg width="30" height="30" fill="none" xmlns="http://www.w3.org/2000/svg"><path d="M0 9.375v11.25A9.376 9.376 0 0 0 9.375 30h11.25A9.376 9.376 0 0 0 30 20.625V9.375A9.376 9.376 0 0 0 20.625 0H9.375A9.376 9.376 0 0 0 0 9.375Zm20.625-6.563a6.57 6.57 0 0 1 6.563 6.563v11.25a6.57 6.57 0 0 1-6.563 6.563H9.375a6.57 6.57 0 0 1-6.563-6.563V9.375a6.57 6.57 0 0 1 6.563-6.563h11.25Z" fill="#000"/><path d="M7.5 15a7.5 7.5 0 1 0 15 0 7.5 7.5 0 0 0-15 0Zm12.188 0A4.694 4.694 0 0 1 15 19.688 4.693 4.693 0 0 1 10.312 15 4.693 4.693 0 0 1 15 10.312 4.694 4.694 0 0 1 19.688 15ZM7.937 6.937a1 1 0 1 0-1.999 0 1 1 0 0 0 1.999 0Z" fill="#000"/></svg>
